!! 00046] TT[KA
!! NN
!!!OTL: Kangding qingge
!!!ARE: Asia, China,Sichuan, Kangding
!! Ethnic Group: Han
!! II, 254
!!!SCT: C0232
!!!YEM: Copyright 1995, estate of Helmut Schaffrath.
**kern
*ICvox
*Ivox
*M2/4
*k[b-]
*F:
{8a
8cc
8dd
16dd
16cc
=1
8.dd
16a
4g
=2
8a
8cc
8dd
16dd
16cc
=3
8dd
4.a}
=4
{8a
8cc
8dd
16dd
16cc
=5
8dd
8a
4g
=6
8cc
8a
16g
16a
16g
16f
=7
8g
4.d}
=8
{8d
4.g
=9
8cc
4.a
=10
16g
16f
4.d}
=11
{8cc
8a
16g
16a
16g
16f
=12
8g
4.d}
==
!!!AGN: Qingge
!! Bberuehmt, Qingge
!!!ONB: ESAC (Essen Associative Code) Database: CHINA_084
!!!AMT: simple duple
!!!AIN: vox
!!!EED: Helmut Schaffrath
!!!EEV: 1.0
*-
